X:1
T:Title
%%score [ ( 1 2 ) ( 3 4 ) ]
L:1/8
Q:1/4=120
M:4/4
K:G
V:1 treble nm="Midi_74" snm=" "
V:2 treble 
V:3 bass nm="Midi_74"
V:4 bass 
V:1
"^William Chatterton Dix" G2 FG A2 G2 | c2"^As with gladness men of old" c2 B4 | E2 F2 G2 E2 | %3
w: As with * glad- ness|men of old|did the gui- ding|
w: |||
w: As they * of- fered|gifts most rare|at thy cra- dle|
w: |||
w: In the * heav'n- ly|coun- try bright|need they no cre-|
"^Adapted from C. Kocher\nby W.H. Monk" D2 D2 D4 |[M:4/4] G2 FG A2 G2 | c2 c2 B4 | E2 F2 G2 E2 | %7
w: star be- hold,|as with * joy they|hailed its light,|lead- ing on- ward,|
w: ||||
w: rude and bare,|so may * we with|ho- ly joy,|pure, and free from|
w: ||||
w: a- ted light;|thou its * light, its|joy, its crown,|thou its sun which|
 D2 D2 D4 | B2 A2 G2 B2 | d3 c B4 | E2 F2 G2 c2 | B2 A2 G4 |] %12
w: beam- ing bright,|so, most gra- cious|Lord, may we|e- ver- more be|led to thee.|
w: |||||
w: sin's al- loy,|all our cost- liest|trea- sures bring,|Christ, to thee our|heav'n- ly King.|
w: |||||
w: goes not down;|there for e- ver|may we sing|al- le- lu- ias|to our King.|
V:2
 D2 D2 D2 D2 | C2 D2 D4 | E2 D2 D2 C2 | B,2 A,2 B,4 |[M:4/4] B,2 E2 E2 D2 | E2 FE (E2 ^D2) | %6
w: ||||||
w: As with joy- ful|steps they sped,|Sa- viour, to thy|low- ly bed,|there to bend the|knee be- * fore *|
w: ||||||
w: Ho- ly Je- sus,|ev'- ry day|keep us in the|nar- row way;|and, when earth- ly|things are * past, *|
 E2 D2 D2 C2 | D2 CB, A,4 | D2 D2 D2 D2 | D2 D2 D4 | E2 D2 D2 E2 | D3 C B,4 |] %12
w: ||||||
w: thee whom heav'n and|earth a- * dore;|so may we with|will- ing feet|e- ver seek thy|mer- cy- seat.|
w: ||||||
w: bring our ran- somed|souls at * last|where they need no|star to guide,|where no clouds thy|glo- ry hide.|
V:3
 B,2 CB, A,2 B,2 | G,2 A,2 G,4 | G,2 A,2 G,2 G,2 | G,2 F,2 G,4 |[M:4/4] B,2 A,B, C2 G,2 | %5
 G,2 A,G, (F,2 B,2) | B,2 A,2 G,2 G,2 | G,2 G,2 (G,2 F,2) | %8
"^This edition  Andrew Sims 2014" G,2 DC B,2 G,2 | A,2 F,2 G,4 | G,2 A,2 G,2 G,2 | G,2 F,2 G,4 |] %12
V:4
 G,2 A,G, F,2 G,2 | E,2 F,2 G,4 | C,2 C,2 B,,2 C,2 | D,2 D,2 G,,4 |[M:4/4] E,2 E,2 C,2 B,,2 | %5
 A,,2 A,,2 B,,4 | C,2 C,2 B,,2 A,,2 | B,,2 A,,G,, D,4 | G,2 F,2 G,2 G,2 | F,2 D,2 G,4 | %10
 C,2 C,2 B,,2 C,2 | D,2 D,2 G,,4 |] %12

